Simply-White-Circles/scalable/emotes/face-surprise.svg

<svg xmlns="http://www.w3.org/2000/svg" xmlns:xlink="http://www.w3.org/1999/xlink" width="48" height="48" viewBox="0 0 12.7 12.7"><defs><linearGradient id="a"><stop offset="0" stop-color="#e6e6e6" stop-opacity="0"/><stop offset="1" stop-color="#e6e6e6"/></linearGradient><radialGradient xlink:href="#a" id="b" cx="6.34" cy="9.12" fx="6.34" fy="9.12" r="1.15" gradientTransform="matrix(1.06588 0 0 1.08775 -.42 -.25)" gradientUnits="userSpaceOnUse"/></defs><path style="marker:none" d="M6.34 7.1A1.15 1.57 0 0 1 7.5 8.66a1.15 1.57 0 0 1-1.15 1.57A1.15 1.57 0 0 1 5.2 8.66 1.15 1.57 0 0 1 6.34 7.1z" overflow="visible" fill="url(#b)"/><path style="marker:none" d="M6.34.07a6.29 6.29 0 0 0-6.29 6.3 6.29 6.29 0 0 0 6.3 6.28 6.29 6.29 0 0 0 6.28-6.29A6.29 6.29 0 0 0 6.34.07zM6.32 1l.01.01a5.4 5.4 0 0 1 5.4 5.4 5.4 5.4 0 0 1-5.4 5.41 5.4 5.4 0 0 1-5.41-5.4A5.4 5.4 0 0 1 6.32 1zm-1.35.72l-.07.02c-.2.04-.38.09-.56.17-.53.24-1 .72-1.32 1.72-.05.15-.12.34-.1.35 0 0 .05-.14.15-.32.66-1.15 1.3-1.55 2.1-1.5.1 0 .08-.22 0-.34-.05-.09-.12-.1-.2-.1zm2.7 0a.22.22 0 0 0-.15.1c-.07.12-.1.34.02.33.78-.04 1.43.36 2.09 1.5l.16.33-.1-.35c-.33-1-.8-1.48-1.33-1.72a2.64 2.64 0 0 0-.69-.19zm.67 1.82a.66 1.55 0 0 0-.65 1.55.66 1.55 0 0 0 .65 1.54A.66 1.55 0 0 0 9 5.1a.66 1.55 0 0 0-.66-1.55zm-3.98.03a.66 1.55 0 0 0-.66 1.55.66 1.55 0 0 0 .66 1.54A.66 1.55 0 0 0 5 5.12a.66 1.55 0 0 0-.65-1.55zm3.97.41a.2.3 0 0 1 .2.3.2.3 0 0 1-.2.3.2.3 0 0 1-.2-.3.2.3 0 0 1 .2-.3zm-3.99.03a.2.3 0 0 1 .2.3.2.3 0 0 1-.2.3.2.3 0 0 1-.2-.3.2.3 0 0 1 .2-.3zm2 2.99a1.22 1.66 0 0 0-1.22 1.66 1.22 1.66 0 0 0 1.22 1.66 1.22 1.66 0 0 0 1.23-1.66A1.22 1.66 0 0 0 6.34 7zm0 .36a.96 1.3 0 0 1 .96 1.3.96 1.3 0 0 1-.96 1.3.96 1.3 0 0 1-.95-1.3.96 1.3 0 0 1 .95-1.3zm-.55 3.42c-.02.1-.15.11 0 .33a1.19 1.19 0 0 0 .8.12 1.17 1.17 0 0 0 .3-.12c.16-.11.1-.22 0-.33a1 1 0 0 1-.2.12.92.92 0 0 1-.9-.12z" overflow="visible" fill="#e6e6e6"/></svg>

<?xml version="1.0" encoding="UTF-8" standalone="no"?>
<svg
   xmlns:dc="http://purl.org/dc/elements/1.1/"
   xmlns:cc="http://creativecommons.org/ns#"
   xmlns:rdf="http://www.w3.org/1999/02/22-rdf-syntax-ns#"
   xmlns:svg="http://www.w3.org/2000/svg"
   xmlns="http://www.w3.org/2000/svg"
   xmlns:xlink="http://www.w3.org/1999/xlink"
   xmlns:sodipodi="http://sodipodi.sourceforge.net/DTD/sodipodi-0.dtd"
   xmlns:inkscape="http://www.inkscape.org/namespaces/inkscape"
   width="48"
   height="48"
   viewBox="0 0 12.7 12.7"
   version="1.1"
   id="svg14"
   sodipodi:docname="face-surprise.svg"
   inkscape:version="0.92.4 (5da689c313, 2019-01-14)">
  <metadata
     id="metadata18">
    <rdf:RDF>
      <cc:Work
         rdf:about="">
        <dc:format>image/svg+xml</dc:format>
        <dc:type
           rdf:resource="http://purl.org/dc/dcmitype/StillImage" />
        <dc:title></dc:title>
      </cc:Work>
    </rdf:RDF>
  </metadata>
  <sodipodi:namedview
     pagecolor="#ffffff"
     bordercolor="#666666"
     borderopacity="1"
     objecttolerance="10"
     gridtolerance="10"
     guidetolerance="10"
     inkscape:pageopacity="0"
     inkscape:pageshadow="2"
     inkscape:window-width="1087"
     inkscape:window-height="480"
     id="namedview16"
     showgrid="false"
     inkscape:zoom="4.9166667"
     inkscape:cx="2.1355932"
     inkscape:cy="24"
     inkscape:window-x="0"
     inkscape:window-y="25"
     inkscape:window-maximized="0"
     inkscape:current-layer="svg14" />
  <defs
     id="defs8">
    <linearGradient
       id="a">
      <stop
         offset="0"
         stop-color="#e6e6e6"
         stop-opacity="0"
         id="stop2" />
      <stop
         offset="1"
         stop-color="#e6e6e6"
         id="stop4" />
    </linearGradient>
    <radialGradient
       xlink:href="#a"
       id="b"
       cx="6.34"
       cy="9.12"
       fx="6.34"
       fy="9.12"
       r="1.15"
       gradientTransform="matrix(1.06588,0,0,1.08775,-0.42,-0.25)"
       gradientUnits="userSpaceOnUse" />
  </defs>
  <path
     style="overflow:visible;fill:url(#b);marker:none"
     d="M 6.34,7.1 A 1.15,1.57 0 0 1 7.5,8.66 1.15,1.57 0 0 1 6.35,10.23 1.15,1.57 0 0 1 5.2,8.66 1.15,1.57 0 0 1 6.34,7.1 Z"
     overflow="visible"
     id="path10"
     inkscape:connector-curvature="0" />
  <path
     style="overflow:visible;fill:#e6e6e6;marker:none"
     d="M 6.34,0.07 A 6.29,6.29 0 0 0 0.05,6.37 6.29,6.29 0 0 0 6.35,12.65 6.29,6.29 0 0 0 12.63,6.36 6.29,6.29 0 0 0 6.34,0.07 Z M 6.32,1 6.33,1.01 a 5.4,5.4 0 0 1 5.4,5.4 5.4,5.4 0 0 1 -5.4,5.41 A 5.4,5.4 0 0 1 0.92,6.42 5.4,5.4 0 0 1 6.32,1 Z M 4.97,1.72 4.9,1.74 C 4.7,1.78 4.52,1.83 4.34,1.91 3.81,2.15 3.34,2.63 3.02,3.63 2.97,3.78 2.9,3.97 2.92,3.98 c 0,0 0.05,-0.14 0.15,-0.32 0.66,-1.15 1.3,-1.55 2.1,-1.5 0.1,0 0.08,-0.22 0,-0.34 C 5.12,1.73 5.05,1.72 4.97,1.72 Z m 2.7,0 C 7.62,1.73 7.57,1.75 7.52,1.82 7.45,1.94 7.42,2.16 7.54,2.15 8.32,2.11 8.97,2.51 9.63,3.65 L 9.79,3.98 9.69,3.63 C 9.36,2.63 8.89,2.15 8.36,1.91 A 2.64,2.64 0 0 0 7.67,1.72 Z M 8.34,3.54 A 0.66,1.55 0 0 0 7.69,5.09 0.66,1.55 0 0 0 8.34,6.63 0.66,1.55 0 0 0 9,5.1 0.66,1.55 0 0 0 8.34,3.55 Z M 4.36,3.57 A 0.66,1.55 0 0 0 3.7,5.12 0.66,1.55 0 0 0 4.36,6.66 0.66,1.55 0 0 0 5,5.12 0.66,1.55 0 0 0 4.35,3.57 Z m 3.97,0.41 a 0.2,0.3 0 0 1 0.2,0.3 0.2,0.3 0 0 1 -0.2,0.3 0.2,0.3 0 0 1 -0.2,-0.3 0.2,0.3 0 0 1 0.2,-0.3 z M 4.34,4.01 a 0.2,0.3 0 0 1 0.2,0.3 0.2,0.3 0 0 1 -0.2,0.3 0.2,0.3 0 0 1 -0.2,-0.3 0.2,0.3 0 0 1 0.2,-0.3 z M 6.34,7 A 1.22,1.66 0 0 0 5.12,8.66 1.22,1.66 0 0 0 6.34,10.32 1.22,1.66 0 0 0 7.57,8.66 1.22,1.66 0 0 0 6.34,7 Z m 0,0.36 A 0.96,1.3 0 0 1 7.3,8.66 0.96,1.3 0 0 1 6.34,9.96 0.96,1.3 0 0 1 5.39,8.66 0.96,1.3 0 0 1 6.34,7.36 Z m -0.55,3.42 c -0.02,0.1 -0.15,0.11 0,0.33 a 1.19,1.19 0 0 0 0.8,0.12 1.17,1.17 0 0 0 0.3,-0.12 c 0.16,-0.11 0.1,-0.22 0,-0.33 a 1,1 0 0 1 -0.2,0.12 0.92,0.92 0 0 1 -0.9,-0.12 z"
     overflow="visible"
     id="path12"
     inkscape:connector-curvature="0" />
</svg>
